static/img/providers/linode.svg

<svg xmlns="http://www.w3.org/2000/svg" width="310.9655156290062" height="90" style=""><rect id="backgroundrect" width="100%" height="100%" x="0" y="0" fill="none" stroke="none" class="" style=""/><g class="currentLayer" style=""><title>Layer 1</title><path d="M93.42901545394339,18.295974052625404 l9.283321089693633,-2.2408016423398425 v44.81603284679685 c0,4.9617750651810795 1.4405153415041847,7.842805748189449 4.321546024512553,8.803149309192237 c-1.4405153415041847,2.7209734228412374 -3.841374244011158,4.161488764345422 -7.362633967688054,4.161488764345422 c-4.161488764345422,0 -6.402290406685264,-2.8810306830083694 -6.402290406685264,-8.803149309192237 V18.295974052625404 zM116.79737543834462,73.03555702978441 V40.70399047602383 h-5.121832325348211 V33.021241988001506 h14.565210675208977 v40.0143150417829 h-9.443378349860765 zm4.801717805013948,-55.37981201782753 c1.4405153415041847,0 2.7209734228412374,0.4801717805013957 3.841374244011158,1.600572601671316 s1.600572601671316,2.4008589025069744 1.600572601671316,3.841374244011158 c0,1.4405153415041847 -0.4801717805013957,2.7209734228412374 -1.600572601671316,3.841374244011158 s-2.4008589025069744,1.600572601671316 -3.841374244011158,1.600572601671316 c-1.4405153415041847,0 -2.7209734228412374,-0.4801717805013957 -3.841374244011158,-1.600572601671316 s-1.600572601671316,-2.4008589025069744 -1.600572601671316,-3.841374244011158 c0,-1.4405153415041847 0.4801717805013957,-2.7209734228412374 1.600572601671316,-3.841374244011158 s2.4008589025069744,-1.600572601671316 3.841374244011158,-1.600572601671316 zM162.73380910631138,73.03555702978441 V49.98731156571746 c0,-3.3612024635097635 -0.6402290406685268,-5.922118626183871 -1.920687122005579,-7.362633967688054 c-1.2804580813370525,-1.600572601671316 -3.3612024635097635,-2.4008589025069744 -6.402290406685264,-2.4008589025069744 c-1.4405153415041847,0 -2.8810306830083694,0.32011452033426363 -4.321546024512553,1.1204008211699228 c-1.600572601671316,0.8002863008356575 -2.7209734228412374,1.7606298618384484 -3.681316983844027,2.8810306830083694 v28.810306830083697 h-9.283321089693633 V33.18129924816864 h6.722404927019527 l1.7606298618384484,3.681316983844027 c2.560916162674106,-3.041087943175501 6.242233146518133,-4.481603284679685 11.204008211699213,-4.481603284679685 c4.801717805013948,0 8.483034788857974,1.4405153415041847 11.204008211699213,4.321546024512553 c2.7209734228412374,2.8810306830083694 4.161488764345422,6.882462187186658 4.161488764345422,11.844237252367742 V73.03555702978441 h-9.443378349860765 zM179.37976416369307,53.02839950889296 c0,-6.082175886351001 1.7606298618384484,-11.043950951532079 5.2818895855153425,-14.88532519554324 c3.521259723676896,-3.841374244011158 8.162920268523711,-5.762061366016739 13.92498163454045,-5.762061366016739 c6.082175886351001,0 10.723836431197817,1.7606298618384484 14.085038894707584,5.441946845682475 c3.3612024635097635,3.681316983844027 4.9617750651810795,8.643092049025107 4.9617750651810795,15.045382455710373 s-1.7606298618384484,11.364065471866345 -5.121832325348211,15.205439715877501 c-3.3612024635097635,3.681316983844027 -8.002863008356579,5.6020041058496055 -14.085038894707584,5.6020041058496055 c-6.082175886351001,0 -10.723836431197817,-1.920687122005579 -14.085038894707584,-5.6020041058496055 c-3.201145203342631,-3.841374244011158 -4.9617750651810795,-8.803149309192237 -4.9617750651810795,-15.045382455710373 zm9.763492870195028,0 c0,8.803149309192237 3.201145203342631,13.124695333704791 9.443378349860765,13.124695333704791 c2.8810306830083694,0 5.121832325348211,-1.1204008211699228 6.882462187186658,-3.3612024635097635 c1.7606298618384484,-2.2408016423398425 2.560916162674106,-5.6020041058496055 2.560916162674106,-9.763492870195028 c0,-8.643092049025107 -3.201145203342631,-12.964638073537659 -9.443378349860765,-12.964638073537659 c-2.8810306830083694,0 -5.2818895855153425,1.1204008211699228 -6.882462187186658,3.3612024635097635 c-1.7606298618384484,2.2408016423398425 -2.560916162674106,5.441946845682475 -2.560916162674106,9.603435610027896 zM250.76530219823377,73.03555702978441 v-2.4008589025069744 c-0.8002863008356575,0.8002863008356575 -2.080744382172711,1.600572601671316 -3.841374244011158,2.2408016423398425 c-1.7606298618384484,0.6402290406685268 -3.681316983844027,0.9603435610027896 -5.762061366016739,0.9603435610027896 c-5.6020041058496055,0 -9.923550130362159,-1.7606298618384484 -13.124695333704791,-5.2818895855153425 c-3.201145203342631,-3.521259723676896 -4.801717805013948,-8.483034788857974 -4.801717805013948,-14.725267935376108 c0,-6.242233146518133 1.7606298618384484,-11.364065471866345 5.441946845682475,-15.365496976044632 s8.162920268523711,-5.922118626183871 13.764924374373315,-5.922118626183871 c3.041087943175501,0 5.762061366016739,0.6402290406685268 8.322977528690844,1.920687122005579 v-16.005726016713158 l9.283321089693633,-2.2408016423398425 V73.03555702978441 h-9.283321089693633 zm0,-30.410879431755003 c-1.920687122005579,-1.600572601671316 -4.0014315041782895,-2.4008589025069744 -6.242233146518133,-2.4008589025069744 c-3.681316983844027,0 -6.5623476668523955,1.1204008211699228 -8.643092049025107,3.3612024635097635 c-2.080744382172711,2.2408016423398425 -3.041087943175501,5.6020041058496055 -3.041087943175501,9.763492870195028 c0,8.322977528690844 4.0014315041782895,12.484466293036267 12.004294512534871,12.484466293036267 c0.9603435610027896,0 1.920687122005579,-0.32011452033426363 3.3612024635097635,-0.8002863008356575 c1.2804580813370525,-0.4801717805013957 2.080744382172711,-1.1204008211699228 2.560916162674106,-1.600572601671316 V42.624677598029415 zM305.02471339489136,55.909430191901336 h-28.490192309749425 c0.1600572601671319,3.201145203342631 1.2804580813370525,5.6020041058496055 3.201145203342631,7.362633967688054 c2.080744382172711,1.7606298618384484 4.6416605448468164,2.7209734228412374 8.162920268523711,2.7209734228412374 c4.161488764345422,0 7.522691227855186,-1.1204008211699228 9.603435610027896,-3.3612024635097635 l3.681316983844027,7.042519447353792 c-3.201145203342631,2.7209734228412374 -8.162920268523711,4.0014315041782895 -14.725267935376108,4.0014315041782895 c-6.082175886351001,0 -10.883893691364948,-1.7606298618384484 -14.405153415041841,-5.2818895855153425 c-3.521259723676896,-3.521259723676896 -5.2818895855153425,-8.483034788857974 -5.2818895855153425,-14.88532519554324 c0,-6.242233146518133 1.920687122005579,-11.364065471866345 5.762061366016739,-15.205439715877501 c3.841374244011158,-3.841374244011158 8.483034788857974,-5.762061366016739 13.92498163454045,-5.762061366016739 c5.762061366016739,0 10.403721910863554,1.7606298618384484 13.92498163454045,5.121832325348211 c3.521259723676896,3.521259723676896 5.2818895855153425,7.842805748189449 5.2818895855153425,13.124695333704791 c0.1600572601671319,1.1204008211699228 -0.1600572601671319,2.7209734228412374 -0.6402290406685268,5.121832325348211 zm-28.170077789415167,-7.042519447353792 h19.526985740390057 c-0.6402290406685268,-5.762061366016739 -3.841374244011158,-8.803149309192237 -9.603435610027896,-8.803149309192237 c-5.2818895855153425,0.1600572601671319 -8.643092049025107,3.041087943175501 -9.923550130362159,8.803149309192237 z" id="svg_1" class=""/><g id="svg_2"><path fill="#004712" d="M65.9 47.4l-1 11.5-3.3-2.3.4-5.8v-.1-.1l-.1-.1-.1-.1-7.1-4.7.1-5.1 11.1 6.8zM48.5 59.9L43.4 56v.9c0 .2-.1.4-.2.5L39.4 60l4.2 3.4.1.1v.2l.2 4 4.7 3.9-.1-11.7zm-32.1 5l2.4 11.5 9.9 10.5L27 75.3 16.4 64.9zm9.3 1.7l-2.4-16.1-12-10 3.2 15.6 11.2 10.5zm-3.8-26l-3.3-22.8L4.8 9.2l4.5 21.5 12.6 9.9z" id="svg_3"/><path fill="#00B259" d="M75.7 41.2l-1.5 10.9-8.2 6.6 1-11.2 8.7-6.3zM49.6 59.9l.1 11.8 10.5-8.4.7-11.5-11.3 8.1zm-6.8 4.8L28 75.3l1.8 12.2 13.4-10.7-.4-12.1zm-.4-8l-.7-16-17.3 9.9 2.4 16.6 15.6-10.5zm-1.1-25.3l-.9-21.6-20.8 8L23 41l18.3-9.6z" id="svg_4"/><path d="M76.9 40c0-.1 0-.1 0 0v-.2s0-.1-.1-.1c0 0-.1 0-.1-.1l-12-6.7c-.2-.1-.4-.1-.5 0L54 39.1h-.1v.6l-.1 5.4-4.1-2.7c-.2-.1-.4-.1-.6 0L43 45.8l-.3-6v-.1-.1-.1-.1-.1h-.1l-6.2-4.1 5.8-3c.2-.1.3-.3.3-.5L41.4 9v-.1s0-.1-.1-.1c0 0 0-.1-.1-.1L25.5 1.1c-.1-.1-.2-.1-.3-.1L3.9 7.6s-.1 0-.1.1c0 0-.1 0-.1.1v.6l4.7 22.9c0 .1.1.2.2.3l6.4 5-4.7 2.2s-.1 0-.1.1c0 0 0 .1-.1.1v.2l3.6 17.2c0 .1.1.2.2.3l4.5 4.2-3 1.8-.1.1s0 .1-.1.1V63.2L18 76.5c0 .1.1.2.1.3l10.9 12h.1s.1 0 .1.1h.5l14.4-11.5c.1-.1.2-.3.2-.4l-.3-7.9 4.8 4s.1 0 .1.1h.5L61 64c.1-.1.2-.2.2-.4l.4-5.8 3.5 2.4h.4s.1 0 .1-.1l9.4-7.5c.1-.1.2-.2.2-.3L76.9 40c0 .1 0 .1 0 0zM66 58.7l1-11.2 8.8-6.3-1.5 10.9-8.3 6.6zm-4.4-2.1l.4-5.8v-.1-.1l-.1-.1-.1-.1-7.1-4.7.1-5.1 11.1 6.9-1 11.5-3.3-2.4zm-1.5 6.7l-10.5 8.4-.1-11.8 11.3-8.1-.7 11.5zM43.3 76.8L29.8 87.5 28 75.3l14.7-10.5.6 12zm-24.6-.4l-2.4-11.5L27 75.3l1.7 11.6-10-10.5zm-.2-58.6l3.3 22.8-12.5-9.9L4.8 9.2l13.7 8.6zm21.9-8l.9 21.6L23 41l-3.4-23.2 20.8-8zm2 46.9L26.8 67.1l-2.4-16.6 17.3-9.9.7 16.1zm-19.1-6.1l2.4 16.1-11.2-10.6-3.2-15.6 12 10.1zm20.5 13.1v-.1-.1l-.1-.1-4.2-3.4 3.8-2.6c.2-.1.2-.3.2-.5V56l5.1 3.9.1 11.8-4.7-3.9-.2-4.1z" id="svg_5"/></g></g></svg>

<svg width="311" height="90" viewBox="0 0 311 90" fill="none" xmlns="http://www.w3.org/2000/svg">
<path d="M93.429 18.296L102.712 16.0552V60.8712C102.712 65.833 104.153 68.714 107.034 69.6744C105.593 72.3953 103.192 73.8358 99.6712 73.8358C95.5097 73.8358 93.2689 70.9548 93.2689 65.0327V18.296H93.429ZM116.797 73.0356V40.704H111.676V33.0212H126.241V73.0356H116.797V73.0356ZM121.599 17.6557C123.04 17.6557 124.32 18.1359 125.44 19.2563C126.561 20.3767 127.041 21.6572 127.041 23.0977C127.041 24.5382 126.561 25.8187 125.44 26.9391C124.32 28.0595 123.04 28.5396 121.599 28.5396C120.159 28.5396 118.878 28.0595 117.758 26.9391C116.637 25.8187 116.157 24.5382 116.157 23.0977C116.157 21.6572 116.637 20.3767 117.758 19.2563C118.878 18.1359 120.159 17.6557 121.599 17.6557ZM162.734 73.0356V49.9873C162.734 46.6261 162.094 44.0652 160.813 42.6247C159.533 41.0241 157.452 40.2238 154.411 40.2238C152.97 40.2238 151.53 40.5439 150.089 41.3442C148.489 42.1445 147.368 43.1049 146.408 44.2253V73.0356H137.125V33.1813H143.847L145.608 36.8626C148.169 33.8215 151.85 32.381 156.812 32.381C161.613 32.381 165.295 33.8215 168.016 36.7026C170.737 39.5836 172.177 43.585 172.177 48.5468V73.0356H162.734V73.0356ZM179.38 53.0284C179.38 46.9462 181.14 41.9845 184.662 38.1431C188.183 34.3017 192.825 32.381 198.587 32.381C204.669 32.381 209.31 34.1416 212.672 37.823C216.033 41.5043 217.633 46.4661 217.633 52.8683C217.633 59.2706 215.873 64.2324 212.512 68.0738C209.15 71.7551 204.509 73.6758 198.427 73.6758C192.344 73.6758 187.703 71.7551 184.341 68.0738C181.14 64.2324 179.38 59.2706 179.38 53.0284V53.0284ZM189.143 53.0284C189.143 61.8316 192.344 66.1531 198.587 66.1531C201.468 66.1531 203.708 65.0327 205.469 62.7919C207.23 60.5511 208.03 57.1899 208.03 53.0284C208.03 44.3853 204.829 40.0638 198.587 40.0638C195.706 40.0638 193.305 41.1842 191.704 43.425C189.944 45.6658 189.143 48.8669 189.143 53.0284V53.0284ZM250.765 73.0356V70.6347C249.965 71.435 248.685 72.2353 246.924 72.8755C245.163 73.5157 243.243 73.8358 241.162 73.8358C235.56 73.8358 231.238 72.0752 228.037 68.554C224.836 65.0327 223.235 60.0709 223.235 53.8287C223.235 47.5865 224.996 42.4646 228.677 38.4632C232.359 34.4618 236.84 32.5411 242.442 32.5411C245.483 32.5411 248.204 33.1813 250.765 34.4618V18.456L260.049 16.2152V73.0356H250.765V73.0356ZM250.765 42.6247C248.845 41.0241 246.764 40.2238 244.523 40.2238C240.842 40.2238 237.961 41.3442 235.88 43.585C233.799 45.8258 232.839 49.187 232.839 53.3485C232.839 61.6715 236.84 65.833 244.843 65.833C245.803 65.833 246.764 65.5129 248.204 65.0327C249.485 64.5525 250.285 63.9123 250.765 63.4321V42.6247V42.6247ZM305.025 55.9094H276.534C276.695 59.1106 277.815 61.5114 279.736 63.2721C281.816 65.0327 284.377 65.993 287.899 65.993C292.06 65.993 295.421 64.8726 297.502 62.6318L301.183 69.6744C297.982 72.3953 293.02 73.6758 286.458 73.6758C280.376 73.6758 275.574 71.9152 272.053 68.3939C268.532 64.8726 266.771 59.9109 266.771 53.5086C266.771 47.2663 268.692 42.1445 272.533 38.3031C276.374 34.4618 281.016 32.5411 286.458 32.5411C292.22 32.5411 296.862 34.3017 300.383 37.6629C303.904 41.1842 305.665 45.5057 305.665 50.7876C305.825 51.908 305.505 53.5086 305.025 55.9094V55.9094ZM276.855 48.8669H296.382C295.741 43.1049 292.54 40.0638 286.778 40.0638C281.496 40.2238 278.135 43.1049 276.855 48.8669Z" fill="white"/>
<path d="M65.8999 47.4L64.8999 58.9L61.5999 56.5999L61.9999 50.7999V50.7V50.5999L61.8999 50.5L61.7999 50.4L54.6999 45.7L54.7999 40.5999L65.8999 47.4V47.4ZM48.4999 59.9L43.3999 56V56.9C43.3999 57.1 43.2999 57.3 43.1999 57.4L39.3999 60L43.5999 63.4L43.6999 63.5V63.7L43.8999 67.6999L48.5999 71.5999L48.4999 59.9V59.9ZM16.3999 64.9L18.7999 76.4L28.6999 86.9L26.9999 75.3L16.3999 64.9ZM25.6999 66.5999L23.2999 50.5L11.2999 40.5L14.4999 56.0999L25.6999 66.5999ZM21.8999 40.5999L18.5999 17.8L4.79993 9.19995L9.29993 30.7L21.8999 40.5999V40.5999Z" fill="white"/>
<path d="M75.7 41.2001L74.2 52.1L66 58.7001L67 47.5L75.7 41.2001ZM49.6 59.9001L49.7 71.7L60.2 63.3L60.9 51.8L49.6 59.9001V59.9001ZM42.8 64.7L28 75.3L29.8 87.5L43.2 76.8L42.8 64.7ZM42.4 56.7001L41.7 40.7001L24.4 50.6L26.8 67.2L42.4 56.7001V56.7001ZM41.3 31.4L40.4 9.80005L19.6 17.8L23 41L41.3 31.4V31.4Z" fill="white"/>
<path d="M76.9 40C76.9 39.9 76.9 39.9 76.9 40V39.8C76.9 39.8 76.9 39.7 76.8 39.7C76.8 39.7 76.7 39.7 76.7 39.6L64.6999 32.9C64.4999 32.8 64.2999 32.8 64.1999 32.9L54 39.1H53.9V39.7L53.7999 45.1L49.7 42.4C49.5 42.3 49.2999 42.3 49.0999 42.4L43 45.8L42.7 39.8V39.7V39.6V39.5V39.4V39.3H42.5999L36.4 35.2L42.2 32.2C42.4 32.1 42.5 31.9 42.5 31.7L41.4 9V8.9C41.4 8.9 41.3999 8.8 41.2999 8.8C41.2999 8.8 41.3 8.7 41.2 8.7L25.5 1.1C25.4 1 25.3 1 25.2 1L3.89995 7.6C3.89995 7.6 3.79995 7.6 3.79995 7.7C3.79995 7.7 3.69995 7.7 3.69995 7.8V8.4L8.39995 31.3C8.39995 31.4 8.49995 31.5 8.59995 31.6L15 36.6L10.3 38.8C10.3 38.8 10.2 38.8 10.2 38.9C10.2 38.9 10.2 39 10.1 39V39.2L13.7 56.4C13.7 56.5 13.8 56.6 13.9 56.7L18.4 60.9L15.4 62.7L15.3 62.8C15.3 62.8 15.3 62.9 15.2 62.9V63.2L18 76.5C18 76.6 18.1 76.7 18.1 76.8L29 88.8H29.1C29.1 88.8 29.2 88.8 29.2 88.9H29.7L44.0999 77.4C44.1999 77.3 44.2999 77.1 44.2999 77L44 69.1L48.7999 73.1C48.7999 73.1 48.9 73.1 48.9 73.2H49.4L61 64C61.1 63.9 61.2 63.8 61.2 63.6L61.5999 57.8L65.0999 60.2H65.5C65.5 60.2 65.5999 60.2 65.5999 60.1L75 52.6C75.1 52.5 75.2 52.4 75.2 52.3L76.9 40C76.9 40.1 76.9 40.1 76.9 40ZM66 58.7L67 47.5L75.8 41.2L74.3 52.1L66 58.7ZM61.5999 56.6L62 50.8V50.7V50.6L61.9 50.5L61.7999 50.4L54.7 45.7L54.7999 40.6L65.9 47.5L64.9 59L61.5999 56.6V56.6ZM60.0999 63.3L49.5999 71.7L49.5 59.9L60.7999 51.8L60.0999 63.3V63.3ZM43.2999 76.8L29.7999 87.5L28 75.3L42.7 64.8L43.2999 76.8V76.8ZM18.7 76.4L16.3 64.9L27 75.3L28.7 86.9L18.7 76.4V76.4ZM18.5 17.8L21.7999 40.6L9.29995 30.7L4.79995 9.2L18.5 17.8V17.8ZM40.4 9.8L41.2999 31.4L23 41L19.6 17.8L40.4 9.8V9.8ZM42.4 56.7L26.7999 67.1L24.4 50.5L41.7 40.6L42.4 56.7V56.7ZM23.2999 50.6L25.7 66.7L14.5 56.1L11.3 40.5L23.2999 50.6ZM43.7999 63.7V63.6V63.5L43.7 63.4L39.5 60L43.2999 57.4C43.4999 57.3 43.5 57.1 43.5 56.9V56L48.5999 59.9L48.7 71.7L44 67.8L43.7999 63.7V63.7Z" fill="white"/>
</svg>
